X:137
T:Inte s\"orjer jag f\"or barnen di \"ar sm{\aa}
R:sl\"angpolska
H:jfr #53
A:Sm{\aa}land
Z:id:hn-sp-137
M:3/4
L:1/16
K:Dm
A2A2 F2F2 G2G2 | A2A2 ^c2c2 d4 |
w:In-te s\"or-jer jag f\"or barn-en di \"ar sm{\aa},
=c2cB A2AB c2A2 | cBGB B2A2 A4 :|
w:hopp fal-le-ri fal-le-ra {\aa} fad-de rad-de ral-*la.
|: A2A2 A2GA B2A2 | A2G2 G2FG A2F2 |
w:Hus-tru min \"ar* sn\"al-ler, fast-\"an barn-et* gn\"al-ler,
A2A2 A2GA B2A2 | A2G2 AGFG F4 :|
w:n\"ar det se'n blir* kv\"al-ler slum-ra al-*la* s\"ott.

